X: 26889
T: Minnie Hynd
R: jig
M: 6/8
K: Amixolydian
|:Ace ece|aga ecA|Ace ece|dcd B2e|
Ace ece|aga ecA|cdc BGB|Ace a2a:|
|:~f3 ~e3|Ace ece|~f3 ~e3|Ace dcd|
~f3 ~e3|Ace ece|cdc BGB|Ace a2a:|
|:cef AcB|Acc cBA|cef AcB|Ace a2e|
cef AcB|Acc ecA|cdc BGB|Ace a2a:|
|:fga fea|Ace ece|fga fea|Ace dcd|
fga fea|Ace ece|cdc BGB|Ace a2a:|

